P3
24 12
255
45 35 20  70 50 24  95 70 30  120 90 38  145 108 45  170 126 54  195 145 64  220 170 82  195 145 64  170 126 54  145 108 45  120 90 38  95 70 30  70 50 24  45 35 20  70 50 24  95 70 30  120 90 38  145 108 45  170 126 54  195 145 64  220 170 82  195 145 64  170 126 54  145 108 45
70 50 24  95 70 30  120 90 38  145 108 45  170 126 54  195 145 64  220 170 82  195 145 64  170 126 54  145 108 45  120 90 38  95 70 30  70 50 24  45 35 20  70 50 24  95 70 30  120 90 38  145 108 45  170 126 54  195 145 64  220 170 82  195 145 64  170 126 54  145 108 45  120 90 38
95 70 30  120 90 38  145 108 45  170 126 54  195 145 64  220 170 82  195 145 64  170 126 54  145 108 45  120 90 38  95 70 30  70 50 24  45 35 20  70 50 24  95 70 30  120 90 38  145 108 45  170 126 54  195 145 64  220 170 82  195 145 64  170 126 54  145 108 45  120 90 38  95 70 30
120 90 38  145 108 45  170 126 54  195 145 64  220 170 82  195 145 64  170 126 54  145 108 45  120 90 38  95 70 30  70 50 24  45 35 20  70 50 24  95 70 30  120 90 38  145 108 45  170 126 54  195 145 64  220 170 82  195 145 64  170 126 54  145 108 45  120 90 38  95 70 30  70 50 24
145 108 45  170 126 54  195 145 64  220 170 82  195 145 64  170 126 54  145 108 45  120 90 38  95 70 30  70 50 24  45 35 20  70 50 24  95 70 30  120 90 38  145 108 45  170 126 54  195 145 64  220 170 82  195 145 64  170 126 54  145 108 45  120 90 38  95 70 30  70 50 24  45 35 20
170 126 54  195 145 64  220 170 82  195 145 64  170 126 54  145 108 45  120 90 38  95 70 30  70 50 24  45 35 20  70 50 24  95 70 30  120 90 38  145 108 45  170 126 54  195 145 64  220 170 82  195 145 64  170 126 54  145 108 45  120 90 38  95 70 30  70 50 24  45 35 20  70 50 24
195 145 64  220 170 82  195 145 64  170 126 54  145 108 45  120 90 38  95 70 30  70 50 24  45 35 20  70 50 24  95 70 30  120 90 38  145 108 45  170 126 54  195 145 64  220 170 82  195 145 64  170 126 54  145 108 45  120 90 38  95 70 30  70 50 24  45 35 20  70 50 24  95 70 30
220 170 82  195 145 64  170 126 54  145 108 45  120 90 38  95 70 30  70 50 24  45 35 20  70 50 24  95 70 30  120 90 38  145 108 45  170 126 54  195 145 64  220 170 82  195 145 64  170 126 54  145 108 45  120 90 38  95 70 30  70 50 24  45 35 20  70 50 24  95 70 30  120 90 38
195 145 64  170 126 54  145 108 45  120 90 38  95 70 30  70 50 24  45 35 20  70 50 24  95 70 30  120 90 38  145 108 45  170 126 54  195 145 64  220 170 82  195 145 64  170 126 54  145 108 45  120 90 38  95 70 30  70 50 24  45 35 20  70 50 24  95 70 30  120 90 38  145 108 45
170 126 54  145 108 45  120 90 38  95 70 30  70 50 24  45 35 20  70 50 24  95 70 30  120 90 38  145 108 45  170 126 54  195 145 64  220 170 82  195 145 64  170 126 54  145 108 45  120 90 38  95 70 30  70 50 24  45 35 20  70 50 24  95 70 30  120 90 38  145 108 45  170 126 54  195 145 64
145 108 45  120 90 38  95 70 30  70 50 24  45 35 20  70 50 24  95 70 30  120 90 38  145 108 45  170 126 54  195 145 64  220 170 82  195 145 64  170 126 54  145 108 45  120 90 38  95 70 30  70 50 24  45 35 20  70 50 24  95 70 30  120 90 38  145 108 45  170 126 54  195 145 64  220 170 82
120 90 38  95 70 30  70 50 24  45 35 20  70 50 24  95 70 30  120 90 38  145 108 45  170 126 54  195 145 64  220 170 82  195 145 64  170 126 54  145 108 45  120 90 38  95 70 30  70 50 24  45 35 20  70 50 24  95 70 30  120 90 38  145 108 45  170 126 54  195 145 64  220 170 82  195 145 64
95 70 30  70 50 24  45 35 20  70 50 24  95 70 30  120 90 38  145 108 45  170 126 54  195 145 64  220 170 82  195 145 64  170 126 54  145 108 45  120 90 38  95 70 30  70 50 24  45 35 20  70 50 24  95 70 30  120 90 38  145 108 45  170 126 54  195 145 64  220 170 82  195 145 64  170 126 54  145 108 45
70 50 24  45 35 20  70 50 24  95 70 30  120 90 38  145 108 45  170 126 54  195 145 64  220 170 82  195 145 64  170 126 54  145 108 45  120 90 38  95 70 30  70 50 24  45 35 20  70 50 24  95 70 30  120 90 38  145 108 45  170 126 54  195 145 64  220 170 82  195 145 64  170 126 54  145 108 45  120 90 38  95 70 30
